Newaita-dark/apps/48/com.github.jeremyvaartjes.comgen.svg

<svg height="48" viewBox="0 0 48 48" width="48" xmlns="http://www.w3.org/2000/svg" xmlns:xlink="http://www.w3.org/1999/xlink"><linearGradient id="a" gradientUnits="userSpaceOnUse" x1="23.81478" x2="23.81478" y1="42.0509045" y2="44.03547050005"><stop offset="0" stop-opacity=".27451"/><stop offset="1" stop-opacity="0"/></linearGradient><linearGradient id="b"><stop offset="0" stop-opacity=".313726"/><stop offset=".222222" stop-opacity=".27451"/><stop offset="1" stop-opacity="0"/></linearGradient><radialGradient id="c" cx="450.908936" cy="189.579361" gradientTransform="matrix(.00000026 -.117199 -.210958 -.00000015 78.195972 95.392999)" gradientUnits="userSpaceOnUse" r="21.166656" xlink:href="#b"/><radialGradient id="d" cx="450.908936" cy="189.579361" gradientTransform="matrix(-.00000026 .117199 .210958 .00000015 -30.56642 -11.291218)" gradientUnits="userSpaceOnUse" r="21.166656" xlink:href="#b"/><radialGradient id="e" cx="450.908936" cy="189.579361" gradientTransform="matrix(-.00000026 -.117199 .210958 -.00000015 -30.56642 95.392999)" gradientUnits="userSpaceOnUse" r="21.166656" xlink:href="#b"/><radialGradient id="f" cx="450.908936" cy="189.579361" gradientTransform="matrix(.00000026 .117199 -.210958 .00000015 78.195969 -11.291219)" gradientUnits="userSpaceOnUse" r="21.166656" xlink:href="#b"/><linearGradient id="g" gradientUnits="userSpaceOnUse" x1="15.87652349995" x2="15.87652349995" y1="42.0509015" y2="4.3441580001"><stop offset="0" stop-color="#e0e0e0"/><stop offset="1" stop-color="#eee"/></linearGradient><linearGradient id="h" gradientUnits="userSpaceOnUse" x1="254" x2="254" y1="233.5" y2="-168.666672"><stop offset="0" stop-color="#616161"/><stop offset="1" stop-color="#757575"/></linearGradient><path d="m8.929688 41.902344h29.769531v2.207031h-29.769531zm0 0" fill="url(#a)"/><path d="m38.699219 42.050781h3.96875v-1.984375h-3.96875zm0 0" fill="url(#c)"/><path d="m8.929688 42.050781h-3.96875v1.984375h3.96875zm0 0" fill="url(#d)"/><path d="m8.929688 42.050781h-3.96875v-1.984375h3.96875zm0 0" fill="url(#e)"/><path d="m38.699219 42.050781h3.96875v1.984375h-3.96875zm0 0" fill="url(#f)"/><path d="m6.945312 4.34375h33.738282c1.097656 0 1.984375.890625 1.984375 1.984375v33.738281c0 1.097656-.886719 1.984375-1.984375 1.984375h-33.738282c-1.09375 0-1.984374-.886719-1.984374-1.984375v-33.738281c0-1.09375.890624-1.984375 1.984374-1.984375zm0 0" fill="url(#g)"/><path d="m6.945312 4.484375c-1.097656 0-1.984374.882813-1.984374 1.984375v.246094c0-1.097656.886718-1.984375 1.984374-1.984375h33.738282c1.097656 0 1.984375.886719 1.984375 1.984375v-.246094c0-1.101562-.886719-1.984375-1.984375-1.984375zm0 0" fill="#f8f8f8" fill-opacity=".392157"/><path d="m6.945312 41.925781c-1.097656 0-1.984374-.882812-1.984374-1.984375v-.246094c0 1.097657.886718 1.984376 1.984374 1.984376h33.738282c1.097656 0 1.984375-.886719 1.984375-1.984376v.246094c0 1.101563-.886719 1.984375-1.984375 1.984375zm0 0" fill-opacity=".196078"/><g fill="none" stroke-linecap="round" transform="matrix(.093759 0 0 .093759 0 20.158175)"><path d="m74.076259-168.671091h359.840637c11.707216 0 21.164646 9.499093 21.164646 21.164646v359.840637c0 11.707215-9.45743 21.164645-21.164646 21.164645h-359.840637c-11.665552 0-21.164645-9.45743-21.164645-21.164645v-359.840637c0-11.665553 9.499093-21.164646 21.164645-21.164646zm0 0" stroke="#212121" stroke-width="3"/><path d="m158.734842 127.675609 74.117922-190.523472" stroke="url(#h)" stroke-linejoin="round" stroke-width="31"/><path d="m275.182055 127.675609 74.076259-190.523472" stroke="url(#h)" stroke-linejoin="round" stroke-width="31"/></g><path d="m21.773438 12.796875c-.582032.023437-1.09375.398437-1.296876.945313l-6.945312 17.859374c-.121094.289063-.140625.609376-.0625.914063.015625-.0625.035156-.125.0625-.1875l6.945312-17.859375c.203126-.546875.714844-.921875 1.296876-.945312.6875-.03125 1.296874.421874 1.46875 1.089843.117187-.449219.011718-.921875-.277344-1.28125-.289063-.355469-.730469-.554687-1.191406-.535156zm10.914062 0c-.582031.023437-1.09375.398437-1.296875.945313l-6.945313 17.859374c-.117187.289063-.136718.605469-.058593.90625.015625-.0625.035156-.121093.058593-.179687l6.945313-17.859375c.203125-.546875.714844-.921875 1.296875-.945312.6875-.03125 1.300781.421874 1.46875 1.089843.117188-.449219.015625-.921875-.277344-1.28125-.289062-.355469-.730468-.554687-1.191406-.535156zm0 0" fill="#fff" fill-opacity=".392157"/><path d="m23.230469 14.691406c-.015625.042969-.027344.085938-.046875.125l-6.945313 17.863282c-.21875.585937-.785156.964843-1.410156.945312-.621094-.019531-1.164063-.433594-1.34375-1.03125-.222656.75.1875 1.542969.929687 1.789062.742188.25 1.550782-.132812 1.824219-.867187l6.945313-17.859375c.125-.308594.140625-.648438.046875-.964844zm0 0" fill-opacity=".235294"/><path d="m34.144531 14.691406c-.011719.042969-.027343.085938-.042969.125l-6.949218 17.863282c-.21875.582031-.785156.960937-1.40625.941406-.625-.023438-1.164063-.4375-1.34375-1.035156-.222656.75.1875 1.539062.929687 1.789062.738281.25 1.542969-.128906 1.820313-.859375l6.949218-17.859375c.121094-.308594.136719-.648438.042969-.964844zm0 0" fill-opacity=".235294"/><path d="m232.227823-78.513034c-6.20774.249976-11.665552 4.249594-13.832012 10.082371l-74.076259 190.48181c-2.124798 5.166173-1.291544 11.123937 2.208122 15.49852 3.458003 4.374582 9.040803 6.541042 14.581941 5.666125 5.499475-.874916 10.124033-4.666221 12.082179-9.91572l74.07626-190.523472c1.999809-4.874535 1.333206-10.457335-1.70817-14.748592-3.041377-4.332919-8.040899-6.791018-13.332061-6.541042zm0 0" fill="none" stroke="#212121" stroke-linecap="round" stroke-linejoin="round" stroke-width="3" transform="matrix(.093759 0 0 .093759 0 20.158175)"/><path d="m348.633374-78.513034c-6.207741.249976-11.665553 4.249594-13.832013 10.082371l-74.076259 190.48181c-2.083134 5.166173-1.249881 11.082275 2.249785 15.456857 3.458003 4.374582 9.040803 6.541042 14.540278 5.666125 5.499475-.874916 10.124033-4.666221 12.08218-9.874057l74.117922-190.523472c1.958146-4.874535 1.333206-10.457335-1.70817-14.748592-3.041377-4.332919-8.082562-6.791018-13.373723-6.541042zm0 0" fill="none" stroke="#212121" stroke-linecap="round" stroke-linejoin="round" stroke-width="3" transform="matrix(.093759 0 0 .093759 0 20.158175)"/></svg>

<?xml version="1.0" encoding="UTF-8"?>
<svg xmlns="http://www.w3.org/2000/svg" xmlns:xlink="http://www.w3.org/1999/xlink" width="48px" height="48px" viewBox="0 0 48 48" version="1.1">
<defs>
<linearGradient id="linear0" gradientUnits="userSpaceOnUse" x1="254" y1="233.5" x2="254" y2="254.666672" gradientTransform="matrix(0.093759,0,0,0.093759,-0.00000572259,20.158178)">
<stop offset="0" style="stop-color:rgb(0%,0%,0%);stop-opacity:0.27451;"/>
<stop offset="1" style="stop-color:rgb(0%,0%,0%);stop-opacity:0;"/>
</linearGradient>
<radialGradient id="radial0" gradientUnits="userSpaceOnUse" cx="450.908936" cy="189.579361" fx="450.908936" fy="189.579361" r="21.166656" gradientTransform="matrix(0.000000261256,-0.117199,-0.210958,-0.000000152308,78.195972,95.392999)">
<stop offset="0" style="stop-color:rgb(0%,0%,0%);stop-opacity:0.313726;"/>
<stop offset="0.222222" style="stop-color:rgb(0%,0%,0%);stop-opacity:0.27451;"/>
<stop offset="1" style="stop-color:rgb(0%,0%,0%);stop-opacity:0;"/>
</radialGradient>
<radialGradient id="radial1" gradientUnits="userSpaceOnUse" cx="450.908936" cy="189.579361" fx="450.908936" fy="189.579361" r="21.166656" gradientTransform="matrix(-0.000000261256,0.117199,0.210958,0.000000152308,-30.56642,-11.291218)">
<stop offset="0" style="stop-color:rgb(0%,0%,0%);stop-opacity:0.313726;"/>
<stop offset="0.222222" style="stop-color:rgb(0%,0%,0%);stop-opacity:0.27451;"/>
<stop offset="1" style="stop-color:rgb(0%,0%,0%);stop-opacity:0;"/>
</radialGradient>
<radialGradient id="radial2" gradientUnits="userSpaceOnUse" cx="450.908936" cy="189.579361" fx="450.908936" fy="189.579361" r="21.166656" gradientTransform="matrix(-0.000000261256,-0.117199,0.210958,-0.000000152308,-30.56642,95.392999)">
<stop offset="0" style="stop-color:rgb(0%,0%,0%);stop-opacity:0.313726;"/>
<stop offset="0.222222" style="stop-color:rgb(0%,0%,0%);stop-opacity:0.27451;"/>
<stop offset="1" style="stop-color:rgb(0%,0%,0%);stop-opacity:0;"/>
</radialGradient>
<radialGradient id="radial3" gradientUnits="userSpaceOnUse" cx="450.908936" cy="189.579361" fx="450.908936" fy="189.579361" r="21.166656" gradientTransform="matrix(0.000000261256,0.117199,-0.210958,0.000000152308,78.195969,-11.291219)">
<stop offset="0" style="stop-color:rgb(0%,0%,0%);stop-opacity:0.313726;"/>
<stop offset="0.222222" style="stop-color:rgb(0%,0%,0%);stop-opacity:0.27451;"/>
<stop offset="1" style="stop-color:rgb(0%,0%,0%);stop-opacity:0;"/>
</radialGradient>
<linearGradient id="linear1" gradientUnits="userSpaceOnUse" x1="169.333328" y1="233.5" x2="169.333328" y2="-168.666656" gradientTransform="matrix(0.093759,0,0,0.093759,0,20.158175)">
<stop offset="0" style="stop-color:rgb(87.843138%,87.843138%,87.843138%);stop-opacity:1;"/>
<stop offset="1" style="stop-color:rgb(93.333334%,93.333334%,93.333334%);stop-opacity:1;"/>
</linearGradient>
<linearGradient id="linear2" gradientUnits="userSpaceOnUse" x1="254" y1="233.5" x2="254" y2="-168.666672" gradientTransform="matrix(1,0,0,1,0,0)">
<stop offset="0" style="stop-color:rgb(38.039216%,38.039216%,38.039216%);stop-opacity:1;"/>
<stop offset="1" style="stop-color:rgb(45.882353%,45.882353%,45.882353%);stop-opacity:1;"/>
</linearGradient>
<linearGradient id="linear3" gradientUnits="userSpaceOnUse" x1="254" y1="233.5" x2="254" y2="-168.666672" gradientTransform="matrix(1,0,0,1,0,0)">
<stop offset="0" style="stop-color:rgb(38.039216%,38.039216%,38.039216%);stop-opacity:1;"/>
<stop offset="1" style="stop-color:rgb(45.882353%,45.882353%,45.882353%);stop-opacity:1;"/>
</linearGradient>
</defs>
<g id="surface1">
<path style=" stroke:none;fill-rule:nonzero;fill:url(#linear0);" d="M 8.929688 41.902344 L 38.699219 41.902344 L 38.699219 44.109375 L 8.929688 44.109375 Z M 8.929688 41.902344 "/>
<path style=" stroke:none;fill-rule:nonzero;fill:url(#radial0);" d="M 38.699219 42.050781 L 42.667969 42.050781 L 42.667969 40.066406 L 38.699219 40.066406 Z M 38.699219 42.050781 "/>
<path style=" stroke:none;fill-rule:nonzero;fill:url(#radial1);" d="M 8.929688 42.050781 L 4.960938 42.050781 L 4.960938 44.035156 L 8.929688 44.035156 Z M 8.929688 42.050781 "/>
<path style=" stroke:none;fill-rule:nonzero;fill:url(#radial2);" d="M 8.929688 42.050781 L 4.960938 42.050781 L 4.960938 40.066406 L 8.929688 40.066406 Z M 8.929688 42.050781 "/>
<path style=" stroke:none;fill-rule:nonzero;fill:url(#radial3);" d="M 38.699219 42.050781 L 42.667969 42.050781 L 42.667969 44.035156 L 38.699219 44.035156 Z M 38.699219 42.050781 "/>
<path style=" stroke:none;fill-rule:nonzero;fill:url(#linear1);" d="M 6.945312 4.34375 L 40.683594 4.34375 C 41.78125 4.34375 42.667969 5.234375 42.667969 6.328125 L 42.667969 40.066406 C 42.667969 41.164062 41.78125 42.050781 40.683594 42.050781 L 6.945312 42.050781 C 5.851562 42.050781 4.960938 41.164062 4.960938 40.066406 L 4.960938 6.328125 C 4.960938 5.234375 5.851562 4.34375 6.945312 4.34375 Z M 6.945312 4.34375 "/>
<path style=" stroke:none;fill-rule:nonzero;fill:rgb(97.254902%,97.254902%,97.254902%);fill-opacity:0.392157;" d="M 6.945312 4.484375 C 5.847656 4.484375 4.960938 5.367188 4.960938 6.46875 L 4.960938 6.714844 C 4.960938 5.617188 5.847656 4.730469 6.945312 4.730469 L 40.683594 4.730469 C 41.78125 4.730469 42.667969 5.617188 42.667969 6.714844 L 42.667969 6.46875 C 42.667969 5.367188 41.78125 4.484375 40.683594 4.484375 Z M 6.945312 4.484375 "/>
<path style=" stroke:none;fill-rule:nonzero;fill:rgb(0%,0%,0%);fill-opacity:0.196078;" d="M 6.945312 41.925781 C 5.847656 41.925781 4.960938 41.042969 4.960938 39.941406 L 4.960938 39.695312 C 4.960938 40.792969 5.847656 41.679688 6.945312 41.679688 L 40.683594 41.679688 C 41.78125 41.679688 42.667969 40.792969 42.667969 39.695312 L 42.667969 39.941406 C 42.667969 41.042969 41.78125 41.925781 40.683594 41.925781 Z M 6.945312 41.925781 "/>
<path style="fill:none;stroke-width:3;stroke-linecap:round;stroke-linejoin:miter;stroke:rgb(12.941177%,12.941177%,12.941177%);stroke-opacity:1;stroke-miterlimit:4;" d="M 74.076259 -168.671091 L 433.916896 -168.671091 C 445.624112 -168.671091 455.081542 -159.171998 455.081542 -147.506445 L 455.081542 212.334192 C 455.081542 224.041407 445.624112 233.498837 433.916896 233.498837 L 74.076259 233.498837 C 62.410707 233.498837 52.911614 224.041407 52.911614 212.334192 L 52.911614 -147.506445 C 52.911614 -159.171998 62.410707 -168.671091 74.076259 -168.671091 Z M 74.076259 -168.671091 " transform="matrix(0.093759,0,0,0.093759,0,20.158175)"/>
<path style="fill:none;stroke-width:31;stroke-linecap:round;stroke-linejoin:round;stroke:url(#linear2);stroke-miterlimit:4;" d="M 158.734842 127.675609 L 232.852764 -62.847863 " transform="matrix(0.093759,0,0,0.093759,0,20.158175)"/>
<path style="fill:none;stroke-width:31;stroke-linecap:round;stroke-linejoin:round;stroke:url(#linear3);stroke-miterlimit:4;" d="M 275.182055 127.675609 L 349.258314 -62.847863 " transform="matrix(0.093759,0,0,0.093759,0,20.158175)"/>
<path style=" stroke:none;fill-rule:nonzero;fill:rgb(100%,100%,100%);fill-opacity:0.392157;" d="M 21.773438 12.796875 C 21.191406 12.820312 20.679688 13.195312 20.476562 13.742188 L 13.53125 31.601562 C 13.410156 31.890625 13.390625 32.210938 13.46875 32.515625 C 13.484375 32.453125 13.503906 32.390625 13.53125 32.328125 L 20.476562 14.46875 C 20.679688 13.921875 21.191406 13.546875 21.773438 13.523438 C 22.460938 13.492188 23.070312 13.945312 23.242188 14.613281 C 23.359375 14.164062 23.253906 13.691406 22.964844 13.332031 C 22.675781 12.976562 22.234375 12.777344 21.773438 12.796875 Z M 32.6875 12.796875 C 32.105469 12.820312 31.59375 13.195312 31.390625 13.742188 L 24.445312 31.601562 C 24.328125 31.890625 24.308594 32.207031 24.386719 32.507812 C 24.402344 32.445312 24.421875 32.386719 24.445312 32.328125 L 31.390625 14.46875 C 31.59375 13.921875 32.105469 13.546875 32.6875 13.523438 C 33.375 13.492188 33.988281 13.945312 34.15625 14.613281 C 34.273438 14.164062 34.171875 13.691406 33.878906 13.332031 C 33.589844 12.976562 33.148438 12.777344 32.6875 12.796875 Z M 32.6875 12.796875 "/>
<path style=" stroke:none;fill-rule:nonzero;fill:rgb(0%,0%,0%);fill-opacity:0.235294;" d="M 23.230469 14.691406 C 23.214844 14.734375 23.203125 14.777344 23.183594 14.816406 L 16.238281 32.679688 C 16.019531 33.265625 15.453125 33.644531 14.828125 33.625 C 14.207031 33.605469 13.664062 33.191406 13.484375 32.59375 C 13.261719 33.34375 13.671875 34.136719 14.414062 34.382812 C 15.15625 34.632812 15.964844 34.25 16.238281 33.515625 L 23.183594 15.65625 C 23.308594 15.347656 23.324219 15.007812 23.230469 14.691406 Z M 23.230469 14.691406 "/>
<path style=" stroke:none;fill-rule:nonzero;fill:rgb(0%,0%,0%);fill-opacity:0.235294;" d="M 34.144531 14.691406 C 34.132812 14.734375 34.117188 14.777344 34.101562 14.816406 L 27.152344 32.679688 C 26.933594 33.261719 26.367188 33.640625 25.746094 33.621094 C 25.121094 33.597656 24.582031 33.183594 24.402344 32.585938 C 24.179688 33.335938 24.589844 34.125 25.332031 34.375 C 26.070312 34.625 26.875 34.246094 27.152344 33.515625 L 34.101562 15.65625 C 34.222656 15.347656 34.238281 15.007812 34.144531 14.691406 Z M 34.144531 14.691406 "/>
<path style="fill:none;stroke-width:3;stroke-linecap:round;stroke-linejoin:round;stroke:rgb(12.941177%,12.941177%,12.941177%);stroke-opacity:1;stroke-miterlimit:4;" d="M 232.227823 -78.513034 C 226.020083 -78.263058 220.562271 -74.26344 218.395811 -68.430663 L 144.319552 122.051147 C 142.194754 127.21732 143.028008 133.175084 146.527674 137.549667 C 149.985677 141.924249 155.568477 144.090709 161.109615 143.215792 C 166.60909 142.340876 171.233648 138.549571 173.191794 133.300072 L 247.268054 -57.2234 C 249.267863 -62.097935 248.60126 -67.680735 245.559884 -71.971992 C 242.518507 -76.304911 237.518985 -78.76301 232.227823 -78.513034 Z M 232.227823 -78.513034 " transform="matrix(0.093759,0,0,0.093759,0,20.158175)"/>
<path style="fill:none;stroke-width:3;stroke-linecap:round;stroke-linejoin:round;stroke:rgb(12.941177%,12.941177%,12.941177%);stroke-opacity:1;stroke-miterlimit:4;" d="M 348.633374 -78.513034 C 342.425633 -78.263058 336.967821 -74.26344 334.801361 -68.430663 L 260.725102 122.051147 C 258.641968 127.21732 259.475221 133.133422 262.974887 137.508004 C 266.43289 141.882586 272.01569 144.049046 277.515165 143.174129 C 283.01464 142.299213 287.639198 138.507908 289.597345 133.300072 L 363.715267 -57.2234 C 365.673413 -62.097935 365.048473 -67.680735 362.007097 -71.971992 C 358.96572 -76.304911 353.924535 -78.76301 348.633374 -78.513034 Z M 348.633374 -78.513034 " transform="matrix(0.093759,0,0,0.093759,0,20.158175)"/>
</g>
</svg>
